assets/images/MCCGroupIcons/MCC-Gas.svg

<svg xmlns="http://www.w3.org/2000/svg" viewBox="0 0 40 40"><style type="text/css">.st0{fill-rule:evenodd;clip-rule:evenodd}</style><path fill-rule="evenodd" d="M5 7C5 4.79086 6.79086 3 9 3H21C23.2091 3 25 4.79086 25 7V17.65C28.4234 18.3449 31 21.3716 31 25V28.25C31 28.9404 31.5596 29.5 32.25 29.5C32.9404 29.5 33.5 28.9404 33.5 28.25V20L31.3906 18.5937C30.8342 18.2228 30.5 17.5983 30.5 16.9296V11.4142C30.5 11.149 30.3946 10.8946 30.2071 10.7071L28.5 9C27.9477 8.44772 27.9477 7.55228 28.5 7C29.0523 6.44772 29.9477 6.44771 30.5 7L35.9142 12.4142C36.2893 12.7893 36.5 13.298 36.5 13.8284V18V20.1315V28.25C36.5 30.5972 34.5972 32.5 32.25 32.5C29.9028 32.5 28 30.5972 28 28.25V25C28 23.0407 26.7478 21.3738 25 20.7561V29V32C25 32.5523 25.4477 33 26 33C26.5523 33 27 33.4477 27 34V36C27 36.5523 26.5523 37 26 37H4C3.44772 37 3 36.5523 3 36V34C3 33.4477 3.44772 33 4 33C4.55228 33 5 32.5523 5 32V29V7ZM9 7H21V17H9V7Z" class="st0" clip-rule="evenodd"/></svg>

<svg xmlns="http://www.w3.org/2000/svg" viewBox="0 0 40 40"><path d="M5 7a4 4 0 0 1 4-4h12a4 4 0 0 1 4 4v10.65c3.423.695 6 3.722 6 7.35v3.25a1.25 1.25 0 1 0 2.5 0V20l-2.11-1.406a2 2 0 0 1-.89-1.664v-5.516a1 1 0 0 0-.293-.707L28.5 9a1.414 1.414 0 1 1 2-2l5.414 5.414a2 2 0 0 1 .586 1.414V28.25a4.25 4.25 0 0 1-8.5 0V25a4.5 4.5 0 0 0-3-4.244V32a1 1 0 0 0 1 1 1 1 0 0 1 1 1v2a1 1 0 0 1-1 1H4a1 1 0 0 1-1-1v-2a1 1 0 0 1 1-1 1 1 0 0 0 1-1zm4 0h12v10H9z" style="fill-rule:evenodd;clip-rule:evenodd"/></svg>
